!!!COM: Schiørring, Niels
!!!CDT: 1743-1798
!!!OPR@@DA: Choral-Bog
!!!ONM: 40
!!!OTL@@DA: J Jeſu Navn ſkal ald vor
**kern	**fb	**kern	**kern	**kern	**kern	**kern	**kern	**kern
*part6	*part6	*part6	*part5	*part5	*part4	*part3	*part2	*part1
*staff8	*	*staff7	*staff6	*staff5	*staff4	*staff3	*staff2	*staff1
*clefF4	*	*clefC1	*clefF4	*clefC1	*clefF4	*clefC4	*clefC3	*clefC1
*k[b-]	*	*k[b-]	*k[b-]	*k[b-]	*k[b-]	*k[b-]	*k[b-]	*k[b-]
*F:	*	*F:	*F:	*F:	*F:	*F:	*F:	*F:
*M4/4	*	*M4/4	*M4/4	*M4/4	*M4/4	*M4/4	*M4/4	*M4/4
*met(c)	*	*met(c)	*met(c)	*met(c)	*met(c)	*met(c)	*met(c)	*met(c)
*MM180	*	*MM180	*MM180	*MM180	*MM180	*MM180	*MM180	*MM180
*	*	*	*^	*^	*	*	*	*
2GG	.	2b-	[2G	2GG	2b-	2d	2GG	[2G	2d	2b-
=1	=1	=1	=1	=1	=1	=1	=1	=1	=1	=1
2D	4	2a	4G]	2D	2a	2.d	2D	(4G]	[2d	2a
2E-X	7	2g	2G	2E-X	2g	.	2E-X	2G	(4d]	2g
=2	=2	=2	=2	=2	=2	=2	=2	=2	=2	=2
2D	#	2f#X	2A	2D	2f#X	2d	2D	2A	2d	2f#X
2C	4	2f#	2A	2Cni	2f#	2d	2C	2A	2d	2f#
=3	=3	=3	=3	=3	=3	=3	=3	=3	=3	=3
2BB-	6	2g	2B-	2BB-	2g	2d	2BB-	2B-	2d	2g
2AA	6	2a	2ryy@	2AA	2c	2f#X	2AA	2c	2f#X	2a
=4	=4	=4	=4	=4	=4	=4	=4	=4	=4	=4
2GG	.	2b-	2ryy@	2GG	2d	2g	2GG	2d	2g	2b-
2E-X	6	2cc	2G	2E-X	2cc	2g	2E-X	2c	2g	2cc
=5	=5	=5	=5	=5	=5	=5	=5	=5	=5	=5
2D	#	2dd	2A	2D	2dd	2f#X	2D	2A	2f#X	2dd
2F#X	6	2a	2d	2F#X	2a	2d	2F#X	2d	2d	2a
=6	=6	=6	=6	=6	=6	=6	=6	=6	=6	=6
2G	.	2b-	2B-	2G	2b-	2d	2G	2B-	2d	2b-
2Fni	2	2g	2B-	2Fni	2g	2d	2Fni	2B-	2d	2g
=7	=7	=7	=7	=7	=7	=7	=7	=7	=7	=7
2E	6	2cc	1c	2E	2cc	2g	2E	2c	2g	2cc
2C	7	2b-	.	2C	2b-	2e	2C	2c	2e	2b-
=8	=8	=8	=8	=8	=8	=8	=8	=8	=8	=8
2F	.	2a	2c	2F	2a	2f	2F	2c	2f	2a
2C#X	5	2g	2A	2C#X	2g	2e	2C#X	2A	2e	2g
=9	=9	=9	=9	=9	=9	=9	=9	=9	=9	=9
2D	.	2f	2.A	2D	2f	2d	2D	2A	2d	2f
2AA	#	2e	.	2AA	2e	2c#X	2AA	(4A	2c#X	2e
.	.	.	4G	.	.	.	.	4G)	.	.
=10	=10	=10	=10	=10	=10	=10	=10	=10	=10	=10
1D	.	1d	1F	1D	1d	1A	1D	1F	1d	1d
=11	=11	=11	=11	=11	=11	=11	=11	=11	=11	=11
2GG	5	2b-	2ryy@	2GG	2B-	4d	2GG	2B-	(4d	2b-
*	*	*	*	*	*v	*v	*	*	*	*
2AA	5	2cc	[2A	2AA	2cc	2AA	[2A	.	2cc
=12	=12	=12	=12	=12	=12	=12	=12	=12	=12
*	*	*	*	*	*^	*	*	*	*
2BB-	7	2dd	4A]	2BB-	2dd	4f	2BB-	(4A]	(4d	2dd
*	*	*	*	*	*v	*v	*	*	*	*
2C	7 -	2cc	2ryy@	2C	2e-X	2C	2e-X	.	2cc
=13	=13	=13	=13	=13	=13	=13	=13	=13	=13
*	*	*	*	*	*^	*^	*	*	*
2D	6 4	2b-	1ryy	2D	2.d	2g	2D	2D	[2d	2g	2b-
2DD	5 #	2a	.	2DD	.	2f#X	2D	2DD	(4d]	2f#X	2a
.	.	.	.	.	4c	.	.	.	4c)	.	.
=14	=14	=14	=14	=14	=14	=14	=14	=14	=14	=14	=14
1GG	.	1g	1ryy	1GG	1B-	1d	1GG	1r	1B-	1g	1g
=15	=15	=15	=15	=15	=15	=15	=15	=15	=15	=15	=15
1D	#	1a	1ryy	1D	1d	1f#X	1D	1r	1d	1f#X	1a
=16	=16	=16	=16	=16	=16	=16	=16	=16	=16	=16	=16
2C#X	6	2a	1ryy	2C#X	2e	2e	2C#X	1r	2e	2e	2a
2AA	7 #	2a	.	2AA	2c#X	2g	2AA	.	2c#X	2g	2a
=17	=17	=17	=17	=17	=17	=17	=17	=17	=17	=17	=17
1D	#	1a	1ryy	1D	1d	1f#X	1D	1r	1d	1f#X	1a
=18	=18	=18	=18	=18	=18	=18	=18	=18	=18	=18	=18
2G	.	2b-	2B-	2G	2b-	2d	2G	1r	2B-	2d	2b-
2F	.	2cc	2A	2Fni	2cc	2fni	2F	.	2A	2fni	2cc
=19	=19	=19	=19	=19	=19	=19	=19	=19	=19	=19	=19
2BB-	.	1dd	2B-	2BB-	1dd	2f	(2BB-	1r	(2B-	(2f	1dd
2B-	6	.	2d	2B-	.	2g	2B-)	.	2d)	2g)	.
=20	=20	=20	=20	=20	=20	=20	=20	=20	=20	=20	=20
2F#X	5	2cc	1d	2F#X	2cc	2a	2F#X	1r	2d	2a	2cc
2G	.	2b-	.	2G	2b-	2g	2G	.	2d	2g	2b-
=21	=21	=21	=21	=21	=21	=21	=21	=21	=21	=21	=21
2D	#	2a	2d	2D	2a	2f#X	2D	1r	2d	2f#X	2a
2D	.	2a	2d	2D	2a	2f#	2D	.	2d	2f#	2a
=22	=22	=22	=22	=22	=22	=22	=22	=22	=22	=22	=22
2G	.	2b-	2B-	2G	2b-	2d	2G	1r	2B-	2d	2b-
2E	5	2cc	[2B-	2E	2cc	2g	2E	.	[2B-	2g	2cc
=23	=23	=23	=23	=23	=23	=23	=23	=23	=23	=23	=23
2F	6 4	2dd	2B-]	1F	2dd	1f	2F	2F	2B-]	2f	2dd
2FF	5 3	2cc	2A	.	2cc	.	2F	2FF	2A	(4f	2cc
.	.	.	.	.	.	.	.	.	.	4e-X)	.
=24	=24	=24	=24	=24	=24	=24	=24	=24	=24	=24	=24
*	*	*	*	*	*	*^	*	*	*	*	*
2BB-	.	2b-	2B-	2BB-	2b-	2d	2f/	2BB-	1r	2B-	2d	2b-
*	*	*	*	*	*	*v	*v	*	*	*	*	*
2D	6	2b-	2B-	2D	2b-	2f	2D	.	2f	2f	2b-
=25	=25	=25	=25	=25	=25	=25	=25	=25	=25	=25	=25
2C	6 -	2cc	2A	2C	2cc	2e-X	2C	1r	2e-X	2a	2cc
2BB-	.	2dd	[2B-	2BB-	2dd	2f	2BB-	.	2f	[2b-	2dd
=26	=26	=26	=26	=26	=26	=26	=26	=26	=26	=26	=26
2E-X	6 5	2cc	2B-]	2E-X	2cc	2g	2E-X	1r	2g	2b-]	2cc
2F	.	2cc	4A	2F	2cc	2f	2F	.	(4f	2a	2cc
.	.	.	4e-X	.	.	.	.	.	4e-X)	.	.
=27	=27	=27	=27	=27	=27	=27	=27	=27	=27	=27	=27
1BB-	.	1b-	1ryy	1BB-	1d	1f	1BB-	1r	1d	1b-	1b-
=28	=28	=28	=28	=28	=28	=28	=28	=28	=28	=28	=28
1B-	5	2dd	1ryy	2B-	2f	2b-	2B-	1r	2d	2f	2dd
.	-r4 2	2ee-X	.	2B-	2g	2cc	2B-	.	2c	2g	2ee-X
=29	=29	=29	=29	=29	=29	=29	=29	=29	=29	=29	=29
*	*	*	*	*	*	*^	*	*	*	*	*
2A	6	2ff	2c	2A	2ff	2f	2cc/	2A	1r	2c	2f	2ff
*	*	*	*	*	*	*v	*v	*	*	*	*	*
2G	nr6	2b-	2B-	2G	2b-	2eni	2G	.	2B-	2e	2b-
=30	=30	=30	=30	=30	=30	=30	=30	=30	=30	=30	=30
2F	.	2a	2c	2F	2a	2f	2F	1r	2c	2f	2a
4D	6	2b-	4ryy@	4D	2d	2f	(4D	.	2d	2f	2b-
4BB-	.	.	4ryy@	4BB-	.	.	4BB-)	.	.	.	.
=31	=31	=31	=31	=31	=31	=31	=31	=31	=31	=31	=31
1FF	.	1cc	1A	1F	1cc	1f	1F	1FF	1A	1f	1cc
=32	=32	=32	=32	=32	=32	=32	=32	=32	=32	=32	=32
1FF#X	6	2dd	1A	1F#X	2dd	1d	2F#X	2FF#X	2A	2d	2dd
.	5	2cc	.	.	2cc	.	2F#	2FF#	2A	2d	2cc
=33	=33	=33	=33	=33	=33	=33	=33	=33	=33	=33	=33
2GG	.	2b-	2G	2G	2b-	2d	2G	2GG	2G	2d	2b-
*	*	*	*	*	*	*	*v	*v	*	*	*
2E-X	6	2g	2G	2E-X	2g	2c#X	2E-X	2G	2c#X	2g
=34	=34	=34	=34	=34	=34	=34	=34	=34	=34	=34
[1D	#	2f#X	2A	[1D	2f#X	1d	[2D	2A	2d	2f#X
.	6 4	2g	2B-	.	2g	.	2D]	2B-	2d	2g
=35	=35	=35	=35	=35	=35	=35	=35	=35	=35	=35
1D]	5 #	1a	1F#X	1D]	1a	1A	1D	1F#X	1A	1a
=36	=36	=36	=36	=36	=36	=36	=36	=36	=36	=36
2C	4	2d	2F#X	2C	2d	2A	2C	2F#X	2A	2d
2BB-	4 2	2e	2G	2BB-	2e	2c	2BB-	2G	2c	2e
=37	=37	=37	=37	=37	=37	=37	=37	=37	=37	=37
2AA	6	2f#X	2A	2AA	2f#X	2c	2AA	2A	2c	2f#X
4BB-	6	2g	[2G	4BB-	2g	2d	(4BB-	[2G	2d	2g
4GG	.	.	.	4GG	.	.	4GG)	.	.	.
=38	=38	=38	=38	=38	=38	=38	=38	=38	=38	=38
1D	6 4	2b-	2G]	1D	2b-	1d	[2D	2G]	2d	2b-
.	5 #	2a	4F#X	.	2a	.	2D]	2F#X	2c	2a
.	.	.	4c	.	.	.	.	.	.	.
=39	=39	=39	=39	=39	=39	=39	=39	=39	=39	=39
2GG	.	2g	2ryy	2GG	2B-	2d	2GG	2G	2B-	2g
*	*	*	*v	*v	*	*	*	*	*	*
*	*	*	*	*v	*v	*	*	*	*
==	==	==	==	==	==	==	==	==
*-	*-	*-	*-	*-	*-	*-	*-	*-
!!!system-decoration: {(s1,s2,s3,s4)}{(s5,s6)}{(s7,s8)}
!!!RDF**kern: i = editorial accidental
!!!AGN: chorale
!!!EED: Derek Remeš
!!!EED2: Victor Phan
!!!END: 2023/11/28
!!!ENC: Wolfgang Drescher
!!!EEV: 2023/11/29
!!!title: @{ONM}. @{OTL}